X: 71
T:Still They Say She's Kind Of Pretty
R:Reel
S:Canterbury Country Dance Orchestra
M:C|
L:1/4
Q:300
K:G
|:"G"GB Ac "D"(B/2c/2d/2) eg|"G"GG Bd "C"cB A2|
 "G"GB Ac "D"(B/2c/2d/2) eg|"D"GG Bd (c/2B/2A/2) "G"G2:|
"G"gg fd "D"(e/2f/2g/2) dB|"C"GB Ac"G" Bde2|
"G"gg fd "D"(e/2f/2g/2) dB|"D"GG Bd (c/2B/2A/2) "G"G2:|
